dist/img/svg/services/ventilation/exhaust.svg

<svg width="22" height="21" viewBox="0 0 22 21" fill="none" xmlns="http://www.w3.org/2000/svg">
<path d="M21.4078 11.7292V11.6974L21.2953 11.5793L17.7306 6.83272V1.38588L17.4213 1.06104H4.78059L4.47121 1.38588V6.83292L0.907024 11.5788L0.793961 11.6975V11.7293L0.768555 11.7631L0.793961 11.784V13.487C0.794358 13.86 0.93567 14.2177 1.18689 14.4815C1.43812 14.7453 1.77874 14.8936 2.13402 14.8941H20.0678C20.4231 14.8936 20.7637 14.7452 21.0149 14.4814C21.2661 14.2177 21.4074 13.86 21.4078 13.487V11.784L21.4332 11.763L21.4078 11.7292ZM5.08996 1.71072H17.1119V6.62157H5.08996V1.71072ZM4.93002 7.27126H17.2717L20.3519 11.3727H1.84987L4.93002 7.27126ZM20.7891 13.4872C20.7889 13.688 20.7129 13.8805 20.5777 14.0225C20.4424 14.1645 20.2591 14.2444 20.0678 14.2446H2.13402C1.94277 14.2444 1.75938 14.1646 1.62414 14.0226C1.4889 13.8806 1.41286 13.688 1.41271 13.4872V12.0224H20.7891V13.4872Z" fill="#78C081"/>
<path d="M7.64385 3.35718L7.33447 3.68202V5.58364L7.64385 5.90848H14.559L14.8684 5.58364V3.68202L14.559 3.35718H7.64385ZM14.2497 5.25869H7.95322V4.00687H14.2497V5.25869Z" fill="#78C081"/>
<path d="M7.82327 16.7168C7.83799 16.5118 8.02371 16.266 8.31846 15.9358L7.86705 15.4915C7.06905 16.3851 6.93602 16.8998 7.78033 18.0092C8.03664 18.3459 8.14136 18.6511 8.09149 18.9161C8.02183 19.287 7.66511 19.4988 7.66155 19.5009L7.80986 19.7864L7.95639 20.0725C7.98124 20.0585 8.56652 19.7212 8.69702 19.0512C8.7873 18.5873 8.64161 18.1004 8.2638 17.6041C7.94083 17.1793 7.80911 16.9141 7.82327 16.7168Z" fill="#78C081"/>
<path d="M10.9615 16.7168C10.9762 16.5117 11.1619 16.2659 11.4566 15.9358L11.0052 15.4915C10.2072 16.3851 10.0742 16.8998 10.9185 18.0092C11.1748 18.3459 11.2795 18.6511 11.2298 18.9162C11.1601 19.287 10.8034 19.4989 10.7998 19.501L10.9481 19.7865L11.0947 20.0726C11.1195 20.0586 11.7048 19.7213 11.8353 19.0512C11.9257 18.5874 11.7799 18.1004 11.4021 17.6042C11.0789 17.1793 10.9472 16.9141 10.9615 16.7168Z" fill="#78C081"/>
<path d="M14.0991 16.7168C14.1139 16.5117 14.2996 16.2659 14.5943 15.9358L14.1429 15.4915C13.3449 16.3851 13.2119 16.8998 14.0562 18.0092C14.3125 18.3459 14.4172 18.6511 14.3675 18.9162C14.2978 19.287 13.9411 19.4989 13.9375 19.501L14.0858 19.7865L14.2324 20.0726C14.2572 20.0586 14.8425 19.7213 14.973 19.0512C15.0634 18.5874 14.9176 18.1004 14.5398 17.6042C14.2167 17.1793 14.085 16.9141 14.0991 16.7168Z" fill="#78C081"/>
<path d="M15 13.141C15 13.4172 14.7761 13.641 14.5 13.641C14.2239 13.641 14 13.4172 14 13.141C14 12.8649 14.2239 12.641 14.5 12.641C14.7761 12.641 15 12.8649 15 13.141Z" fill="#78C081"/>
<path d="M17 13.141C17 13.4172 16.7761 13.641 16.5 13.641C16.2239 13.641 16 13.4172 16 13.141C16 12.8649 16.2239 12.641 16.5 12.641C16.7761 12.641 17 12.8649 17 13.141Z" fill="#78C081"/>
<path d="M19 13.141C19 13.4172 18.7761 13.641 18.5 13.641C18.2239 13.641 18 13.4172 18 13.141C18 12.8649 18.2239 12.641 18.5 12.641C18.7761 12.641 19 12.8649 19 13.141Z" fill="#78C081"/>
</svg>

<svg width="22" height="21" fill="none" xmlns="http://www.w3.org/2000/svg"><path d="M21.408 11.73v-.033l-.113-.118-3.564-4.746V1.386l-.31-.325H4.781l-.31.325v5.447L.907 11.579l-.113.118v.032l-.025.034.025.021v1.703c0 .373.142.73.393.995.251.263.592.412.947.412h17.934c.355 0 .696-.149.947-.413.251-.263.392-.621.393-.994v-1.703l.025-.021-.025-.034zM5.09 1.71h12.022v4.912H5.09V1.71zm-.16 5.561h12.342l3.08 4.102H1.85L4.93 7.27zm15.86 6.216a.786.786 0 01-.212.536.705.705 0 01-.51.222H2.134a.705.705 0 01-.51-.222.778.778 0 01-.211-.536v-1.465h19.376v1.465z" fill="#78C081"/><path d="M7.644 3.357l-.31.325v1.902l.31.324h6.915l.31-.324V3.682l-.31-.325H7.644zM14.25 5.26H7.953V4.007h6.297v1.252zM7.823 16.717c.015-.205.2-.451.495-.781l-.45-.444c-.799.893-.932 1.408-.088 2.517.257.337.361.642.311.907-.07.371-.426.583-.43.585l.149.285.146.287c.025-.015.61-.352.741-1.022.09-.464-.055-.95-.433-1.447-.323-.425-.455-.69-.44-.887zm3.138 0c.015-.205.2-.451.496-.781l-.452-.444c-.798.893-.93 1.408-.087 2.517.257.337.362.642.312.907-.07.371-.427.583-.43.585l.148.285.147.287c.024-.014.61-.352.74-1.022.09-.464-.055-.95-.433-1.447-.323-.425-.455-.69-.44-.887zm3.139 0c.014-.205.2-.451.494-.781l-.451-.444c-.798.893-.931 1.408-.087 2.517.257.337.361.642.312.907-.07.371-.427.583-.43.585l.148.285.146.287c.025-.014.61-.352.741-1.022.09-.464-.055-.95-.433-1.447-.323-.425-.455-.69-.44-.887zm.9-3.576a.5.5 0 11-1 0 .5.5 0 011 0zm2 0a.5.5 0 11-1 0 .5.5 0 011 0zm2 0a.5.5 0 11-1 0 .5.5 0 011 0z" fill="#78C081"/></svg>
